trunk/public/assets/images/icons/green/move_left/support.svg

<svg width="16" height="16" xmlns="http://www.w3.org/2000/svg" viewBox="0 0 16 16" shape-rendering="geometricPrecision" fill="#00962d"><defs><mask id="a"><rect fill="#fff" width="100%" height="100%"/><path fill="#000" d="M16.383 1.058l-2.47-2.473-4.51 4.512 4.51 4.506 2.47-2.47-2.035-2.038z"/></mask></defs><path fill="#cb1800" d="M12.935 3.095l2.035-2.037L13.913 0l-3.096 3.097 3.096 3.092 1.057-1.057"/><g mask="url(#a)"><path d="M13.1 6.144c0-1.174-.952-2.124-2.124-2.124-1.176 0-2.125.95-2.125 2.124 0 1.175.95 2.124 2.126 2.124 1.172 0 2.124-.95 2.124-2.124zm-6.147 5.18v2.66h8.045v-2.66c0-1.126-.915-2.047-2.042-2.047H9.002c-1.127 0-2.05.92-2.05 2.047zM7.077 2.02h-4.97c-.587 0-1.067.48-1.067 1.067v2.77c0 .588.48 1.067 1.067 1.067h2.76c.053.07.865 1.12 2.328 1.347-.515-.46-.628-.962-.616-1.345h.497c.586 0 1.066-.48 1.066-1.066V3.086c0-.587-.48-1.067-1.066-1.067zM4.325 6.293H4.32c-.27 0-.458-.203-.458-.474 0-.28.192-.474.462-.474.28 0 .464.192.468.473 0 .27-.187.473-.467.473zm.63-1.94c-.193.214-.27.417-.266.65v.094h-.692l-.006-.135c-.015-.265.072-.535.307-.81.166-.203.3-.37.3-.547 0-.182-.12-.302-.38-.312-.17 0-.38.062-.513.156l-.177-.566c.192-.11.5-.214.868-.214.685 0 .997.38.997.812 0 .394-.243.654-.44.872z"/></g></svg>

<?xml version="1.0"?><!DOCTYPE svg PUBLIC "-//W3C//DTD SVG 1.1//EN" "http://www.w3.org/Graphics/SVG/1.1/DTD/svg11.dtd"><svg width="16px" height="16px" xmlns="http://www.w3.org/2000/svg" viewBox="0 0 16 16" shape-rendering="geometricPrecision" fill="#00962d"><defs><mask id="move_left-path"><rect fill="#fff" width="100%" height="100%"/><polygon points="16.383,1.058 13.913,-1.415 9.403,3.097 13.914,7.603 16.383,5.134 14.348,3.095 " fill="#000"/></mask></defs><polygon points="12.935,3.095 14.97,1.058 13.913,0 10.817,3.097 13.913,6.189 14.97,5.133 " fill="#cb1800"/><g mask="url(#move_left-path)"><g><g><path d="M13.1,6.144c0-1.174-0.952-2.124-2.124-2.124c-1.176,0-2.125,0.95-2.125,2.124c0,1.175,0.949,2.124,2.125,2.124 C12.148,8.268,13.1,7.318,13.1,6.144z M6.953,11.324v2.661h8.045v-2.661c0-1.126-0.915-2.047-2.042-2.047H9.002 C7.875,9.277,6.953,10.198,6.953,11.324z"/></g><path d="M7.077,2.02H2.107c-0.587,0-1.067,0.48-1.067,1.067v2.771c0,0.587,0.48,1.066,1.067,1.066h2.761 C4.92,6.994,5.732,8.044,7.195,8.271C6.68,7.811,6.567,7.308,6.579,6.925h0.498c0.586,0,1.066-0.479,1.066-1.066V3.087 C8.143,2.5,7.663,2.02,7.077,2.02z M4.325,6.293H4.319c-0.27,0-0.457-0.203-0.457-0.474c0-0.28,0.192-0.473,0.462-0.473 c0.281,0,0.464,0.192,0.468,0.473C4.793,6.09,4.605,6.293,4.325,6.293z M4.954,4.354c-0.192,0.213-0.27,0.416-0.265,0.65v0.093 H3.998L3.992,4.962C3.977,4.697,4.064,4.427,4.299,4.151c0.167-0.202,0.302-0.369,0.302-0.546c0-0.182-0.12-0.302-0.38-0.312 c-0.171,0-0.38,0.062-0.514,0.156L3.53,2.884c0.192-0.109,0.5-0.214,0.868-0.214c0.685,0,0.997,0.379,0.997,0.812 C5.395,3.876,5.152,4.136,4.954,4.354z"/></g></g></svg>
